Simply-White-Circles/scalable/apps/palemoon.svg

<svg xmlns="http://www.w3.org/2000/svg" width="48" height="48" viewBox="0 0 12.7 12.7"><path d="M5.827.84a5.58 5.58 0 0 0-2.02.586c.029.089-.004.19-.107.279-.07.06-.126.153-.126.208 0 .168.151.424.272.462.16.05.106.22-.1.315a.626.626 0 0 0-.26.28c-.049.11-.12.22-.158.242-.038.023-.07.11-.07.192 0 .116.053.172.227.242.124.05.273.086.331.08.332-.031.356.162.065.54-.154.202-.229.252-.334.227-.098-.024-.151.004-.196.101-.047.103-.124.138-.33.152-.204.014-.295.056-.371.167-.056.081-.136.147-.179.147-.043 0-.143.055-.223.121-.163.136-.227.15-.284.06-.076-.117-.239-.057-.481.175-.215.205-.24.26-.208.439.057.317.23.598.426.696.171.086.174.095.07.205a.64.64 0 0 1-.227.151c-.19.058-.083.13.254.172.345.044.452.17.291.34-.09.095-.085.113.06.203.281.177.506.069.241-.116-.17-.119-.051-.168.198-.081.2.069.239.065.356-.037.241-.21.504.1.283.333-.14.149-.098.328.084.353.08.01.247.085.371.166.124.08.259.146.3.146.04 0 .155.082.255.182.203.202.315.228.372.086.07-.172.042-.26-.143-.462-.148-.16-.387-.588-.387-.69 0-.063.243-.01.38.083.085.059.223.134.306.168.089.036.18.149.223.272.065.194.091.21.323.21h.253l.038.454c.046.545.09.656.277.7.137.034.285.247.285.414 0 .045-.1.153-.22.242-.15.11-.215.202-.205.294.012.114-.014.132-.175.12a.987.987 0 0 0-.401.08.728.728 0 0 1-.427.058c-.16-.03-.215-.018-.215.045 0 .046-.056.133-.125.192-.17.147-.1.225.161.178.162-.029.225-.016.253.054.06.148-.091.36-.231.325-.089-.022-.131.009-.159.113a.263.263 0 0 1-.048.095 5.58 5.58 0 0 0 .883.261.369.369 0 0 0-.09-.123c-.144-.102-.048-.366.15-.414.202-.048.17-.179-.05-.204-.191-.022-.396-.216-.332-.316.043-.067.227-.057.599.031.168.04.283-.04.672-.466.225-.246.398-.349.588-.349.073 0 .331-.067.575-.148.46-.154.64-.149.624.02-.036.35.19.338.557-.029.152-.153.292-.263.31-.246.07.067-.056.395-.203.527-.187.168-.196.274-.032.358.09.046.128.14.142.35l.02.287h.233c.082 0 .15.01.204.032a5.58 5.58 0 0 0 2.703-4.605c-.085-.183-.079-.293 0-.417a5.58 5.58 0 0 0-.025-.313 1.775 1.775 0 0 0-.162-.002c-.281.012-.522-.1-.522-.24 0-.03-.1-.153-.222-.273-.138-.137-.21-.257-.188-.32.018-.057-.022-.148-.094-.21-.07-.061-.128-.159-.128-.217 0-.094-.06-.106-.489-.095l-.49.012.009.482c.014.845.14 1.064.528.923.178-.065.615-.016.739.082.045.036.11.165.144.288.035.123.163.335.285.471.247.277.266.385.124.71-.123.283-.256.25-.23-.057l.02-.229-.21.04a.613.613 0 0 0-.326.191c-.092.12-.136.138-.205.083a.262.262 0 0 1-.088-.18c0-.06-.06-.127-.132-.149-.073-.022-.172-.132-.221-.244-.079-.18-.077-.235.014-.453.093-.221.094-.258.009-.34-.079-.074-.119-.077-.222-.015-.103.062-.152.057-.274-.025a.675.675 0 0 0-.318-.1c-.188 0-.245-.092-.245-.395 0-.28-.167-.381-.564-.345-.276.025-.337.007-.56-.164a2.57 2.57 0 0 1-.482-.566 16.193 16.193 0 0 0-.307-.478c-.058-.082-.044-.161.07-.385l.143-.282-.303.04c-.539.074-.648.144-.416.268.09.048.094.073.024.154-.045.052-.067.135-.047.185.02.05-.005.165-.056.258a.804.804 0 0 0-.094.288c-.005.208-.361.374-.758.352-.6-.033-.65-.024-.863.174-.267.248-.301.363-.177.593.12.223.334.312.704.294.33-.017.368.013.293.231-.065.186-.28.258-.427.141-.113-.09-.501-.02-.62.111-.05.055-.125.199-.165.32-.07.208-.09.22-.403.25-.312.03-.342.02-.566-.186-.25-.23-.293-.407-.172-.71.053-.135.093-.157.236-.13.283.051.394-.047.394-.35 0-.146-.028-.283-.063-.303-.035-.021-.063-.099-.063-.173a.339.339 0 0 0-.08-.213c-.063-.061-.053-.094.048-.165a.429.429 0 0 1 .252-.074c.07.009.262-.022.428-.066.239-.065.309-.114.341-.24.062-.238.211-.43.337-.43.198 0 .203-.467.01-1.145-.029-.1-.107-.164-.246-.198-.112-.028-.234-.105-.27-.17-.037-.066-.104-.12-.15-.12-.045 0-.134-.054-.197-.12a.458.458 0 0 0-.294-.122c-.236 0-.24-.162-.006-.248.247-.09.631.029.724.224.126.265.266.154.31-.246.057-.495.227-.637.765-.637h.387l-.17-.17a.675.675 0 0 1-.126-.18zm2.006.175c-.01.01-.021.018-.032.03-.13.131-.19.15-.39.12-.35-.054-.305.087.082.257.209.092.343.196.389.302.22.511.372.786.448.814.155.057.246-.057.28-.347.04-.334.153-.404.355-.222.079.07.189.128.244.128.173 0 .302.07.302.164 0 .05.058.169.13.265.106.142.177.176.375.176.242 0 .391.046.695.213l.014.006a5.58 5.58 0 0 0-2.891-1.906zM.776 6.365a5.58 5.58 0 0 0-.001.024 5.58 5.58 0 0 0 .109 1.072c.202.083.258.05.279-.138.01-.097.061-.208.113-.246.08-.059.065-.089-.098-.2-.106-.072-.21-.199-.232-.28a.504.504 0 0 0-.17-.232zM2.532 8.21c-.052-.005-.115.023-.185.09-.147.14-.125.424.042.537.192.128.266.09.29-.146.03-.293-.033-.469-.147-.481zm.947.843c-.057.002-.12.043-.183.13-.066.09-.084.208-.059.386.031.22.018.266-.097.325-.147.075-.179.3-.058.415.12.115.234.085.275-.072.06-.225.387-.251.612-.05.095.086.174.13.174.097s-.1-.153-.222-.265c-.186-.173-.22-.247-.22-.47 0-.314-.097-.5-.222-.496zm-1.555.72a5.58 5.58 0 0 0 .129.164 1.013 1.013 0 0 0-.13-.163zm1.88.857c-.028.01-.04.046-.04.108 0 .063-.04.129-.09.147-.065.024-.08.1-.054.28.004.034.006.06.007.089a5.58 5.58 0 0 0 .232.12.945.945 0 0 1 .065-.353c.085-.242.088-.303.019-.345-.066-.04-.11-.055-.139-.046z" opacity=".5" fill="#e6e6e6"/><path d="M6.34.07a6.29 6.29 0 0 0-6.29 6.3 6.29 6.29 0 0 0 6.3 6.28 6.29 6.29 0 0 0 6.28-6.29A6.29 6.29 0 0 0 6.34.07zM6.32 1l.01.01a5.4 5.4 0 0 1 5.4 5.4 5.4 5.4 0 0 1-5.4 5.41 5.4 5.4 0 0 1-5.41-5.4A5.4 5.4 0 0 1 6.32 1z" fill="#e6e6e6"/></svg>

<?xml version="1.0" encoding="UTF-8" standalone="no"?>
<svg
   xmlns:dc="http://purl.org/dc/elements/1.1/"
   xmlns:cc="http://creativecommons.org/ns#"
   xmlns:rdf="http://www.w3.org/1999/02/22-rdf-syntax-ns#"
   xmlns:svg="http://www.w3.org/2000/svg"
   xmlns="http://www.w3.org/2000/svg"
   xmlns:sodipodi="http://sodipodi.sourceforge.net/DTD/sodipodi-0.dtd"
   xmlns:inkscape="http://www.inkscape.org/namespaces/inkscape"
   width="48"
   height="48"
   viewBox="0 0 12.7 12.7"
   version="1.1"
   id="svg6"
   sodipodi:docname="palemoon.svg"
   inkscape:version="0.92.4 (5da689c313, 2019-01-14)">
  <metadata
     id="metadata12">
    <rdf:RDF>
      <cc:Work
         rdf:about="">
        <dc:format>image/svg+xml</dc:format>
        <dc:type
           rdf:resource="http://purl.org/dc/dcmitype/StillImage" />
        <dc:title></dc:title>
      </cc:Work>
    </rdf:RDF>
  </metadata>
  <defs
     id="defs10" />
  <sodipodi:namedview
     pagecolor="#ffffff"
     bordercolor="#666666"
     borderopacity="1"
     objecttolerance="10"
     gridtolerance="10"
     guidetolerance="10"
     inkscape:pageopacity="0"
     inkscape:pageshadow="2"
     inkscape:window-width="1087"
     inkscape:window-height="480"
     id="namedview8"
     showgrid="false"
     inkscape:zoom="4.9166667"
     inkscape:cx="2.1355932"
     inkscape:cy="24"
     inkscape:window-x="0"
     inkscape:window-y="25"
     inkscape:window-maximized="0"
     inkscape:current-layer="svg6" />
  <path
     d="M 5.827,0.84 A 5.58,5.58 0 0 0 3.807,1.426 C 3.836,1.515 3.803,1.616 3.7,1.705 3.63,1.765 3.574,1.858 3.574,1.913 c 0,0.168 0.151,0.424 0.272,0.462 0.16,0.05 0.106,0.22 -0.1,0.315 A 0.626,0.626 0 0 0 3.486,2.97 C 3.437,3.08 3.366,3.19 3.328,3.212 3.29,3.235 3.258,3.322 3.258,3.404 c 0,0.116 0.053,0.172 0.227,0.242 0.124,0.05 0.273,0.086 0.331,0.08 C 4.148,3.695 4.172,3.888 3.881,4.266 3.727,4.468 3.652,4.518 3.547,4.493 3.449,4.469 3.396,4.497 3.351,4.594 3.304,4.697 3.227,4.732 3.021,4.746 2.817,4.76 2.726,4.802 2.65,4.913 2.594,4.994 2.514,5.06 2.471,5.06 2.428,5.06 2.328,5.115 2.248,5.181 2.085,5.317 2.021,5.331 1.964,5.241 1.888,5.124 1.725,5.184 1.483,5.416 1.268,5.621 1.243,5.676 1.275,5.855 1.332,6.172 1.505,6.453 1.701,6.551 1.872,6.637 1.875,6.646 1.771,6.756 A 0.64,0.64 0 0 1 1.544,6.907 C 1.354,6.965 1.461,7.037 1.798,7.079 2.143,7.123 2.25,7.249 2.089,7.419 1.999,7.514 2.004,7.532 2.149,7.622 2.43,7.799 2.655,7.691 2.39,7.506 2.22,7.387 2.339,7.338 2.588,7.425 c 0.2,0.069 0.239,0.065 0.356,-0.037 0.241,-0.21 0.504,0.1 0.283,0.333 -0.14,0.149 -0.098,0.328 0.084,0.353 0.08,0.01 0.247,0.085 0.371,0.166 0.124,0.08 0.259,0.146 0.3,0.146 0.04,0 0.155,0.082 0.255,0.182 C 4.44,8.77 4.552,8.796 4.609,8.654 4.679,8.482 4.651,8.394 4.466,8.192 4.318,8.032 4.079,7.604 4.079,7.502 c 0,-0.063 0.243,-0.01 0.38,0.083 0.085,0.059 0.223,0.134 0.306,0.168 0.089,0.036 0.18,0.149 0.223,0.272 0.065,0.194 0.091,0.21 0.323,0.21 h 0.253 l 0.038,0.454 c 0.046,0.545 0.09,0.656 0.277,0.7 0.137,0.034 0.285,0.247 0.285,0.414 0,0.045 -0.1,0.153 -0.22,0.242 -0.15,0.11 -0.215,0.202 -0.205,0.294 0.012,0.114 -0.014,0.132 -0.175,0.12 a 0.987,0.987 0 0 0 -0.401,0.08 0.728,0.728 0 0 1 -0.427,0.058 c -0.16,-0.03 -0.215,-0.018 -0.215,0.045 0,0.046 -0.056,0.133 -0.125,0.192 -0.17,0.147 -0.1,0.225 0.161,0.178 0.162,-0.029 0.225,-0.016 0.253,0.054 0.06,0.148 -0.091,0.36 -0.231,0.325 C 4.49,11.369 4.448,11.4 4.42,11.504 A 0.263,0.263 0 0 1 4.372,11.599 5.58,5.58 0 0 0 5.255,11.86 0.369,0.369 0 0 0 5.165,11.737 C 5.021,11.635 5.117,11.371 5.315,11.323 5.517,11.275 5.485,11.144 5.265,11.119 5.074,11.097 4.869,10.903 4.933,10.803 c 0.043,-0.067 0.227,-0.057 0.599,0.031 0.168,0.04 0.283,-0.04 0.672,-0.466 0.225,-0.246 0.398,-0.349 0.588,-0.349 0.073,0 0.331,-0.067 0.575,-0.148 0.46,-0.154 0.64,-0.149 0.624,0.02 -0.036,0.35 0.19,0.338 0.557,-0.029 C 8.7,9.709 8.84,9.599 8.858,9.616 c 0.07,0.067 -0.056,0.395 -0.203,0.527 -0.187,0.168 -0.196,0.274 -0.032,0.358 0.09,0.046 0.128,0.14 0.142,0.35 l 0.02,0.287 h 0.233 c 0.082,0 0.15,0.01 0.204,0.032 a 5.58,5.58 0 0 0 2.703,-4.605 c -0.085,-0.183 -0.079,-0.293 0,-0.417 A 5.58,5.58 0 0 0 11.9,5.835 1.775,1.775 0 0 0 11.738,5.833 c -0.281,0.012 -0.522,-0.1 -0.522,-0.24 0,-0.03 -0.1,-0.153 -0.222,-0.273 C 10.856,5.183 10.784,5.063 10.806,5 10.824,4.943 10.784,4.852 10.712,4.79 10.642,4.729 10.584,4.631 10.584,4.573 c 0,-0.094 -0.06,-0.106 -0.489,-0.095 L 9.605,4.49 9.614,4.972 c 0.014,0.845 0.14,1.064 0.528,0.923 0.178,-0.065 0.615,-0.016 0.739,0.082 0.045,0.036 0.11,0.165 0.144,0.288 0.035,0.123 0.163,0.335 0.285,0.471 0.247,0.277 0.266,0.385 0.124,0.71 -0.123,0.283 -0.256,0.25 -0.23,-0.057 l 0.02,-0.229 -0.21,0.04 a 0.613,0.613 0 0 0 -0.326,0.191 c -0.092,0.12 -0.136,0.138 -0.205,0.083 a 0.262,0.262 0 0 1 -0.088,-0.18 c 0,-0.06 -0.06,-0.127 -0.132,-0.149 C 10.19,7.123 10.091,7.013 10.042,6.901 9.963,6.721 9.965,6.666 10.056,6.448 10.149,6.227 10.15,6.19 10.065,6.108 9.986,6.034 9.946,6.031 9.843,6.093 9.74,6.155 9.691,6.15 9.569,6.068 A 0.675,0.675 0 0 0 9.251,5.968 C 9.063,5.968 9.006,5.876 9.006,5.573 9.006,5.293 8.839,5.192 8.442,5.228 8.166,5.253 8.105,5.235 7.882,5.064 A 2.57,2.57 0 0 1 7.4,4.498 16.193,16.193 0 0 0 7.093,4.02 C 7.035,3.938 7.049,3.859 7.163,3.635 L 7.306,3.353 7.003,3.393 C 6.464,3.467 6.355,3.537 6.587,3.661 6.677,3.709 6.681,3.734 6.611,3.815 6.566,3.867 6.544,3.95 6.564,4 6.584,4.05 6.559,4.165 6.508,4.258 A 0.804,0.804 0 0 0 6.414,4.546 C 6.409,4.754 6.053,4.92 5.656,4.898 5.056,4.865 5.006,4.874 4.793,5.072 4.526,5.32 4.492,5.435 4.616,5.665 4.736,5.888 4.95,5.977 5.32,5.959 5.65,5.942 5.688,5.972 5.613,6.19 5.548,6.376 5.333,6.448 5.186,6.331 5.073,6.241 4.685,6.311 4.566,6.442 4.516,6.497 4.441,6.641 4.401,6.762 4.331,6.97 4.311,6.982 3.998,7.012 3.686,7.042 3.656,7.032 3.432,6.826 3.182,6.596 3.139,6.419 3.26,6.116 3.313,5.981 3.353,5.959 3.496,5.986 3.779,6.037 3.89,5.939 3.89,5.636 3.89,5.49 3.862,5.353 3.827,5.333 3.792,5.312 3.764,5.234 3.764,5.16 A 0.339,0.339 0 0 0 3.684,4.947 C 3.621,4.886 3.631,4.853 3.732,4.782 A 0.429,0.429 0 0 1 3.984,4.708 C 4.054,4.717 4.246,4.686 4.412,4.642 4.651,4.577 4.721,4.528 4.753,4.402 4.815,4.164 4.964,3.972 5.09,3.972 5.288,3.972 5.293,3.505 5.1,2.827 5.071,2.727 4.993,2.663 4.854,2.629 4.742,2.601 4.62,2.524 4.584,2.459 4.547,2.393 4.48,2.339 4.434,2.339 4.389,2.339 4.3,2.285 4.237,2.219 A 0.458,0.458 0 0 0 3.943,2.097 C 3.707,2.097 3.703,1.935 3.937,1.849 4.184,1.759 4.568,1.878 4.661,2.073 4.787,2.338 4.927,2.227 4.971,1.827 5.028,1.332 5.198,1.19 5.736,1.19 H 6.123 L 5.953,1.02 A 0.675,0.675 0 0 1 5.827,0.84 Z M 7.833,1.015 C 7.823,1.025 7.812,1.033 7.801,1.045 7.671,1.176 7.611,1.195 7.411,1.165 7.061,1.111 7.106,1.252 7.493,1.422 7.702,1.514 7.836,1.618 7.882,1.724 8.102,2.235 8.254,2.51 8.33,2.538 8.485,2.595 8.576,2.481 8.61,2.191 8.65,1.857 8.763,1.787 8.965,1.969 c 0.079,0.07 0.189,0.128 0.244,0.128 0.173,0 0.302,0.07 0.302,0.164 0,0.05 0.058,0.169 0.13,0.265 0.106,0.142 0.177,0.176 0.375,0.176 0.242,0 0.391,0.046 0.695,0.213 l 0.014,0.006 A 5.58,5.58 0 0 0 7.834,1.015 Z M 0.776,6.365 A 5.58,5.58 0 0 0 0.775,6.389 5.58,5.58 0 0 0 0.884,7.461 C 1.086,7.544 1.142,7.511 1.163,7.323 1.173,7.226 1.224,7.115 1.276,7.077 1.356,7.018 1.341,6.988 1.178,6.877 1.072,6.805 0.968,6.678 0.946,6.597 A 0.504,0.504 0 0 0 0.776,6.365 Z M 2.532,8.21 C 2.48,8.205 2.417,8.233 2.347,8.3 2.2,8.44 2.222,8.724 2.389,8.837 2.581,8.965 2.655,8.927 2.679,8.691 2.709,8.398 2.646,8.222 2.532,8.21 Z M 3.479,9.053 C 3.422,9.055 3.359,9.096 3.296,9.183 3.23,9.273 3.212,9.391 3.237,9.569 3.268,9.789 3.255,9.835 3.14,9.894 c -0.147,0.075 -0.179,0.3 -0.058,0.415 0.12,0.115 0.234,0.085 0.275,-0.072 0.06,-0.225 0.387,-0.251 0.612,-0.05 0.095,0.086 0.174,0.13 0.174,0.097 0,-0.033 -0.1,-0.153 -0.222,-0.265 C 3.735,9.846 3.701,9.772 3.701,9.549 3.701,9.235 3.604,9.049 3.479,9.053 Z M 1.924,9.773 A 5.58,5.58 0 0 0 2.053,9.937 1.013,1.013 0 0 0 1.923,9.774 Z m 1.88,0.857 c -0.028,0.01 -0.04,0.046 -0.04,0.108 0,0.063 -0.04,0.129 -0.09,0.147 -0.065,0.024 -0.08,0.1 -0.054,0.28 0.004,0.034 0.006,0.06 0.007,0.089 a 5.58,5.58 0 0 0 0.232,0.12 0.945,0.945 0 0 1 0.065,-0.353 C 4.009,10.779 4.012,10.718 3.943,10.676 3.877,10.636 3.833,10.621 3.804,10.63 Z"
     id="path2"
     inkscape:connector-curvature="0"
     style="opacity:0.5;fill:#e6e6e6" />
  <path
     d="M 6.34,0.07 A 6.29,6.29 0 0 0 0.05,6.37 6.29,6.29 0 0 0 6.35,12.65 6.29,6.29 0 0 0 12.63,6.36 6.29,6.29 0 0 0 6.34,0.07 Z M 6.32,1 6.33,1.01 a 5.4,5.4 0 0 1 5.4,5.4 5.4,5.4 0 0 1 -5.4,5.41 A 5.4,5.4 0 0 1 0.92,6.42 5.4,5.4 0 0 1 6.32,1 Z"
     id="path4"
     inkscape:connector-curvature="0"
     style="fill:#e6e6e6" />
</svg>
